flaticon/baby/feeding-2.svg

<svg xmlns="http://www.w3.org/2000/svg" width="32" height="32" viewBox="0 0 24 24">
    <path d="M 19.199219 20 C 18.996094 20 18.804688 20.039062 18.621094 20.09375 L 15.140625 12.207031 C 15.429688 11.8125 15.601562 11.324219 15.601562 10.800781 C 15.601562 10.621094 15.578125 10.445312 15.542969 10.277344 C 15.730469 9.984375 15.878906 9.675781 15.976562 9.351562 C 17.800781 3.855469 17.804688 3.84375 17.808594 3.835938 C 18.019531 3.113281 17.882812 2.351562 17.433594 1.75 C 16.980469 1.144531 16.289062 0.800781 15.535156 0.800781 C 15.363281 0.800781 15.199219 0.824219 15.035156 0.863281 C 14.578125 0.316406 13.914062 0 13.199219 0 C 11.875 0 10.800781 1.078125 10.800781 2.398438 C 10.800781 3.230469 11.234375 3.96875 11.894531 4.398438 L 7.199219 4.398438 L 7.199219 2 L 4.800781 2 L 4.800781 4.398438 L 3.800781 4.398438 C 3.25 4.398438 2.800781 4.847656 2.800781 5.398438 C 2.800781 5.953125 3.25 6.398438 3.800781 6.398438 L 7.601562 6.398438 L 7.601562 8.679688 C 6.195312 9.742188 5.222656 11.257812 4.859375 12.980469 L 4.308594 15.601562 L 7.460938 15.601562 L 8.878906 12.40625 C 8.988281 12.160156 9.234375 12 9.503906 12 L 11.125 12 C 11.167969 12.070312 11.210938 12.140625 11.261719 12.207031 L 7.78125 20.097656 C 7.59375 20.039062 7.402344 20 7.199219 20 C 6.097656 20 5.199219 20.898438 5.199219 22 C 5.199219 23.101562 6.097656 24 7.199219 24 C 8.304688 24 9.199219 23.101562 9.199219 22 C 9.199219 21.386719 8.917969 20.847656 8.484375 20.480469 L 10.285156 16.398438 L 16.117188 16.398438 L 17.914062 20.480469 C 17.480469 20.847656 17.199219 21.386719 17.199219 22 C 17.199219 23.101562 18.097656 24 19.199219 24 C 20.304688 24 21.199219 23.101562 21.199219 22 C 21.199219 20.898438 20.304688 20 19.199219 20 Z M 8.398438 22 C 8.398438 22.660156 7.863281 23.199219 7.199219 23.199219 C 6.539062 23.199219 6 22.660156 6 22 C 6 21.339844 6.539062 20.800781 7.199219 20.800781 C 7.289062 20.800781 7.375 20.8125 7.457031 20.828125 L 6.835938 22.238281 L 7.566406 22.5625 L 8.140625 21.261719 C 8.300781 21.464844 8.398438 21.71875 8.398438 22 Z M 11.734375 11.4375 C 11.71875 11.402344 11.710938 11.367188 11.699219 11.332031 C 11.675781 11.273438 11.65625 11.214844 11.644531 11.152344 C 11.636719 11.121094 11.632812 11.089844 11.625 11.058594 C 11.613281 10.988281 11.609375 10.917969 11.605469 10.847656 C 11.605469 10.816406 11.605469 10.785156 11.605469 10.753906 C 11.605469 10.679688 11.613281 10.613281 11.625 10.542969 C 11.632812 10.511719 11.636719 10.480469 11.640625 10.449219 C 11.683594 10.261719 11.761719 10.082031 11.863281 9.925781 C 11.875 9.910156 11.882812 9.898438 11.894531 9.882812 C 11.941406 9.816406 11.996094 9.75 12.054688 9.691406 C 12.0625 9.679688 12.070312 9.671875 12.078125 9.660156 C 12.21875 9.527344 12.378906 9.414062 12.558594 9.335938 C 12.574219 9.328125 12.585938 9.324219 12.601562 9.320312 C 12.679688 9.285156 12.765625 9.261719 12.851562 9.242188 C 12.863281 9.238281 12.878906 9.234375 12.890625 9.230469 C 12.960938 9.21875 13.03125 9.214844 13.105469 9.210938 C 13.140625 9.207031 13.179688 9.203125 13.214844 9.203125 C 13.3125 9.203125 13.410156 9.210938 13.503906 9.230469 C 13.5625 9.242188 13.613281 9.261719 13.667969 9.277344 C 13.710938 9.289062 13.753906 9.300781 13.792969 9.316406 C 13.847656 9.339844 13.898438 9.367188 13.953125 9.394531 C 13.984375 9.414062 14.019531 9.429688 14.050781 9.449219 C 14.105469 9.484375 14.15625 9.527344 14.210938 9.566406 C 14.230469 9.585938 14.253906 9.601562 14.273438 9.621094 C 14.332031 9.675781 14.386719 9.730469 14.433594 9.792969 C 14.441406 9.804688 14.449219 9.8125 14.457031 9.824219 C 14.574219 9.972656 14.664062 10.140625 14.722656 10.332031 L 14.769531 10.488281 C 14.789062 10.589844 14.800781 10.695312 14.800781 10.800781 C 14.800781 11.683594 14.082031 12.398438 13.199219 12.398438 C 12.542969 12.398438 11.980469 12.003906 11.734375 11.4375 Z M 13.199219 0.800781 C 13.585938 0.800781 13.957031 0.941406 14.242188 1.191406 C 14.226562 1.199219 14.21875 1.210938 14.203125 1.222656 C 14.128906 1.273438 14.058594 1.328125 13.988281 1.390625 C 13.960938 1.414062 13.925781 1.441406 13.898438 1.46875 C 13.828125 1.535156 13.765625 1.605469 13.707031 1.679688 C 13.683594 1.707031 13.660156 1.730469 13.636719 1.761719 C 13.578125 1.839844 13.527344 1.925781 13.476562 2.011719 C 13.460938 2.042969 13.441406 2.066406 13.425781 2.09375 C 13.371094 2.207031 13.324219 2.320312 13.285156 2.441406 C 13.28125 2.445312 13.277344 2.453125 13.277344 2.460938 L 12.785156 3.933594 C 12.101562 3.75 11.601562 3.125 11.601562 2.398438 C 11.601562 1.519531 12.316406 0.800781 13.199219 0.800781 Z M 5.601562 2.800781 L 6.398438 2.800781 L 6.398438 4.398438 L 5.601562 4.398438 Z M 3.800781 5.601562 C 3.691406 5.601562 3.601562 5.511719 3.601562 5.398438 C 3.601562 5.289062 3.691406 5.199219 3.800781 5.199219 L 14 5.199219 L 14 5.601562 L 8.800781 5.601562 L 8.800781 9.601562 L 8.398438 9.601562 L 8.398438 5.601562 Z M 11.960938 6.398438 L 11.691406 7.207031 C 10.976562 7.234375 10.277344 7.371094 9.601562 7.605469 L 9.601562 6.398438 Z M 10.835938 11.199219 L 9.503906 11.199219 C 8.917969 11.199219 8.386719 11.546875 8.148438 12.082031 L 6.941406 14.800781 L 5.292969 14.800781 L 5.640625 13.144531 C 5.921875 11.816406 6.605469 10.621094 7.601562 9.710938 L 7.601562 10.398438 L 9.601562 10.398438 L 9.601562 8.457031 C 10.363281 8.152344 11.160156 8 11.980469 8 L 12.269531 8 L 12.804688 6.398438 L 14.800781 6.398438 L 14.800781 4.398438 L 13.472656 4.398438 L 14.039062 2.703125 C 14.070312 2.597656 14.117188 2.5 14.171875 2.40625 C 14.183594 2.386719 14.195312 2.363281 14.210938 2.34375 C 14.265625 2.253906 14.328125 2.167969 14.402344 2.09375 C 14.402344 2.089844 14.40625 2.089844 14.40625 2.085938 C 14.484375 2.003906 14.574219 1.933594 14.671875 1.867188 C 14.683594 1.859375 14.691406 1.855469 14.703125 1.847656 C 14.800781 1.789062 14.902344 1.734375 15.011719 1.695312 L 15.066406 1.675781 C 15.214844 1.628906 15.375 1.601562 15.535156 1.601562 C 16.035156 1.601562 16.492188 1.828125 16.792969 2.226562 C 17.089844 2.628906 17.179688 3.132812 17.042969 3.597656 C 17.015625 3.683594 15.21875 9.097656 15.214844 9.109375 C 15.1875 9.199219 15.15625 9.28125 15.121094 9.367188 C 14.996094 9.203125 14.851562 9.050781 14.691406 8.921875 C 14.667969 8.902344 14.644531 8.886719 14.621094 8.871094 C 14.566406 8.828125 14.511719 8.792969 14.453125 8.757812 C 14.425781 8.738281 14.398438 8.71875 14.367188 8.703125 C 14.289062 8.660156 14.207031 8.621094 14.125 8.585938 C 14.101562 8.574219 14.074219 8.566406 14.050781 8.558594 C 13.980469 8.53125 13.914062 8.507812 13.84375 8.488281 C 13.8125 8.480469 13.78125 8.472656 13.753906 8.464844 C 13.671875 8.449219 13.589844 8.433594 13.507812 8.421875 C 13.492188 8.417969 13.476562 8.417969 13.460938 8.414062 C 13.375 8.40625 13.289062 8.398438 13.199219 8.398438 C 13.1875 8.398438 13.171875 8.402344 13.15625 8.402344 C 13.136719 8.402344 13.113281 8.40625 13.089844 8.40625 C 13.007812 8.410156 12.925781 8.417969 12.847656 8.429688 C 12.828125 8.429688 12.808594 8.429688 12.789062 8.433594 C 12.777344 8.4375 12.765625 8.441406 12.753906 8.441406 C 12.660156 8.460938 12.566406 8.484375 12.476562 8.511719 C 12.445312 8.523438 12.414062 8.535156 12.382812 8.546875 C 12.316406 8.570312 12.253906 8.597656 12.191406 8.625 C 12.160156 8.640625 12.125 8.65625 12.09375 8.671875 C 12.007812 8.714844 11.925781 8.765625 11.847656 8.820312 C 11.832031 8.828125 11.816406 8.839844 11.804688 8.851562 C 11.734375 8.902344 11.664062 8.957031 11.601562 9.015625 C 11.582031 9.03125 11.5625 9.046875 11.546875 9.066406 C 11.472656 9.136719 11.402344 9.207031 11.339844 9.285156 C 11.328125 9.296875 11.320312 9.3125 11.308594 9.328125 C 11.257812 9.394531 11.210938 9.460938 11.167969 9.53125 C 11.148438 9.558594 11.132812 9.585938 11.117188 9.617188 C 11.070312 9.699219 11.023438 9.78125 10.988281 9.871094 C 10.976562 9.894531 10.96875 9.921875 10.960938 9.945312 C 10.933594 10.019531 10.90625 10.09375 10.886719 10.167969 C 10.882812 10.183594 10.875 10.203125 10.871094 10.21875 C 10.867188 10.238281 10.863281 10.253906 10.859375 10.273438 C 10.851562 10.3125 10.84375 10.351562 10.835938 10.390625 C 10.832031 10.429688 10.824219 10.46875 10.820312 10.507812 C 10.8125 10.550781 10.8125 10.59375 10.808594 10.636719 C 10.804688 10.675781 10.804688 10.714844 10.800781 10.753906 C 10.800781 10.769531 10.800781 10.785156 10.800781 10.800781 C 10.800781 10.828125 10.804688 10.855469 10.804688 10.882812 C 10.804688 10.921875 10.808594 10.957031 10.808594 10.996094 C 10.8125 11.042969 10.820312 11.089844 10.828125 11.140625 C 10.828125 11.160156 10.832031 11.179688 10.835938 11.199219 Z M 10.636719 15.601562 L 11.875 12.796875 C 12.253906 13.050781 12.710938 13.199219 13.199219 13.199219 C 13.691406 13.199219 14.144531 13.050781 14.527344 12.796875 L 15.761719 15.601562 Z M 19.199219 23.199219 C 18.539062 23.199219 18 22.660156 18 22 C 18 21.71875 18.101562 21.464844 18.261719 21.261719 L 18.835938 22.5625 L 19.566406 22.238281 L 18.945312 20.828125 C 19.027344 20.8125 19.113281 20.800781 19.199219 20.800781 C 19.863281 20.800781 20.398438 21.339844 20.398438 22 C 20.398438 22.660156 19.863281 23.199219 19.199219 23.199219 Z M 19.199219 23.199219"/>
</svg>

<svg xmlns="http://www.w3.org/2000/svg" width="32" height="32" viewBox="0 0 24 24">
    <path d="M19.2 20c-.204 0-.395.04-.579.094l-3.48-7.887a2.377 2.377 0 0 0 .402-1.93 3.7 3.7 0 0 0 .434-.925c1.824-5.497 1.828-5.508 1.832-5.516a2.357 2.357 0 0 0-.375-2.086A2.348 2.348 0 0 0 15.535.8c-.172 0-.336.024-.5.063A2.383 2.383 0 0 0 13.2 0a2.401 2.401 0 0 0-2.398 2.398c0 .832.433 1.57 1.094 2H7.199V2H4.801v2.398h-1a1 1 0 1 0 0 2h3.8V8.68a7.257 7.257 0 0 0-2.742 4.3l-.55 2.622H7.46l1.418-3.196A.686.686 0 0 1 9.504 12h1.621c.043.07.086.14.137.207l-3.48 7.89A1.934 1.934 0 0 0 7.198 20c-1.101 0-2 .898-2 2 0 1.102.899 2 2 2 1.106 0 2-.898 2-2 0-.613-.281-1.152-.715-1.52l1.801-4.082h5.832l1.797 4.082A1.984 1.984 0 0 0 17.2 22c0 1.102.899 2 2 2 1.106 0 2-.898 2-2 0-1.102-.894-2-2-2zM8.397 22a1.2 1.2 0 1 1-.941-1.172l-.621 1.41.73.325.575-1.301c.16.203.257.457.257.738zm3.336-10.563c-.015-.035-.023-.07-.035-.105a.955.955 0 0 1-.054-.18c-.008-.03-.012-.062-.02-.093a1.924 1.924 0 0 1-.02-.211v-.094c0-.074.008-.14.02-.211a.782.782 0 0 0 .016-.094c.043-.187.12-.367.222-.523l.032-.043c.046-.067.101-.133.16-.192l.023-.03c.14-.134.3-.247.48-.325a.19.19 0 0 1 .044-.016 1.33 1.33 0 0 1 .25-.078l.039-.012c.07-.011.14-.015.214-.02a1.03 1.03 0 0 1 .11-.007c.098 0 .195.008.289.027.059.012.11.032.164.047.043.012.086.024.125.04.055.023.105.05.16.078.031.02.067.035.098.054.054.035.105.078.16.117.02.02.043.036.062.055.059.055.114.11.16.172.008.012.016.02.024.031.117.149.207.317.266.508l.047.156a1.6 1.6 0 0 1-3.035.95zM13.2.802c.387 0 .758.14 1.043.39-.015.008-.023.02-.039.032-.074.05-.144.105-.215.168-.027.023-.062.05-.09.078-.07.066-.132.136-.191.21-.023.028-.047.051-.07.083-.059.078-.11.164-.16.25-.016.031-.036.054-.051.082a2.695 2.695 0 0 0-.14.347.03.03 0 0 0-.009.02l-.492 1.473a1.599 1.599 0 0 1-1.183-1.536A1.6 1.6 0 0 1 13.199.801zm-7.597 2h.796v1.597h-.796zM3.8 5.6a.2.2 0 0 1 0-.402H14v.403H8.8v4h-.402v-4zm8.16.797l-.27.809a7.2 7.2 0 0 0-2.09.398V6.398zM10.836 11.2H9.504c-.586 0-1.117.348-1.356.883l-1.207 2.719H5.293l.348-1.656A6.45 6.45 0 0 1 7.6 9.71v.687h2V8.457A6.362 6.362 0 0 1 11.982 8h.289l.535-1.602H14.8v-2h-1.328l.566-1.695c.031-.105.078-.203.133-.297.012-.02.023-.043.039-.062.055-.09.117-.176.191-.25 0-.004.004-.004.004-.008.078-.082.168-.152.266-.219l.031-.02c.098-.058.2-.113.309-.152l.054-.02a1.56 1.56 0 0 1 1.977 1.922c-.027.087-1.824 5.5-1.828 5.512-.027.09-.059.172-.094.258a2.577 2.577 0 0 0-.43-.445c-.023-.02-.046-.035-.07-.05a1.581 1.581 0 0 0-.168-.114c-.027-.02-.055-.04-.086-.055a2.764 2.764 0 0 0-.242-.117c-.023-.012-.05-.02-.074-.027a2.155 2.155 0 0 0-.297-.094c-.082-.016-.164-.031-.246-.043-.016-.004-.031-.004-.047-.008a2.854 2.854 0 0 0-.262-.016c-.011 0-.027.004-.043.004-.02 0-.043.004-.066.004a2.422 2.422 0 0 0-.242.024c-.02 0-.04 0-.059.004a3.2 3.2 0 0 0-.313.078l-.093.035c-.067.023-.13.05-.192.078-.03.016-.066.031-.097.047a1.96 1.96 0 0 0-.29.18c-.07.05-.14.105-.202.164-.02.015-.04.03-.055.05a2.18 2.18 0 0 0-.207.22c-.012.01-.02.027-.031.042a2.354 2.354 0 0 0-.192.29 1.935 1.935 0 0 0-.129.253c-.011.024-.02.05-.027.074a2.478 2.478 0 0 0-.074.223c-.004.016-.012.035-.016.05l-.012.055-.023.118c-.004.039-.012.078-.016.117-.008.043-.008.086-.011.129-.004.039-.004.078-.008.117v.047c0 .027.004.054.004.082 0 .039.004.074.004.113.004.047.011.094.02.145 0 .02.003.039.007.058zm-.2 4.403l1.239-2.805a2.388 2.388 0 0 0 2.652 0l1.235 2.805zm8.563 7.597C18.54 23.2 18 22.66 18 22c0-.281.102-.535.262-.738l.574 1.3.73-.324-.62-1.41A1.2 1.2 0 1 1 19.2 23.2zm0 0"/>
</svg>
